Newaita-dark/mimetypes/24/text-x-apport.svg

<?xml version="1.0" encoding="UTF-8"?>
<svg xmlns="http://www.w3.org/2000/svg" xmlns:xlink="http://www.w3.org/1999/xlink" width="24px" height="24px" viewBox="0 0 24 24" version="1.1">
<defs>
<linearGradient id="linear0" gradientUnits="userSpaceOnUse" x1="254" y1="233.5" x2="254" y2="254.666672" gradientTransform="matrix(0.0468795,0,0,0.0468795,0.49614,10.079089)">
<stop offset="0" style="stop-color:rgb(0%,0%,0%);stop-opacity:0.27451;"/>
<stop offset="1" style="stop-color:rgb(0%,0%,0%);stop-opacity:0;"/>
</linearGradient>
<radialGradient id="radial0" gradientUnits="userSpaceOnUse" cx="450.908936" cy="189.579361" fx="450.908936" fy="189.579361" r="21.166656" gradientTransform="matrix(0.000000130628,-0.0585994,-0.105479,-0.0000000761539,37.113427,47.696499)">
<stop offset="0" style="stop-color:rgb(0%,0%,0%);stop-opacity:0.313726;"/>
<stop offset="0.222222" style="stop-color:rgb(0%,0%,0%);stop-opacity:0.27451;"/>
<stop offset="1" style="stop-color:rgb(0%,0%,0%);stop-opacity:0;"/>
</radialGradient>
<radialGradient id="radial1" gradientUnits="userSpaceOnUse" cx="450.908936" cy="189.579361" fx="450.908936" fy="189.579361" r="21.166656" gradientTransform="matrix(-0.000000130628,0.0585994,0.105479,0.0000000761539,-13.794787,-5.645609)">
<stop offset="0" style="stop-color:rgb(0%,0%,0%);stop-opacity:0.313726;"/>
<stop offset="0.222222" style="stop-color:rgb(0%,0%,0%);stop-opacity:0.27451;"/>
<stop offset="1" style="stop-color:rgb(0%,0%,0%);stop-opacity:0;"/>
</radialGradient>
<radialGradient id="radial2" gradientUnits="userSpaceOnUse" cx="450.908936" cy="189.579361" fx="450.908936" fy="189.579361" r="21.166656" gradientTransform="matrix(-0.000000130628,-0.0585994,0.105479,-0.0000000761539,-13.794787,47.696499)">
<stop offset="0" style="stop-color:rgb(0%,0%,0%);stop-opacity:0.313726;"/>
<stop offset="0.222222" style="stop-color:rgb(0%,0%,0%);stop-opacity:0.27451;"/>
<stop offset="1" style="stop-color:rgb(0%,0%,0%);stop-opacity:0;"/>
</radialGradient>
<radialGradient id="radial3" gradientUnits="userSpaceOnUse" cx="450.908936" cy="189.579361" fx="450.908936" fy="189.579361" r="21.166656" gradientTransform="matrix(0.000000130628,0.0585994,-0.105479,0.0000000761539,37.113425,-5.64561)">
<stop offset="0" style="stop-color:rgb(0%,0%,0%);stop-opacity:0.313726;"/>
<stop offset="0.222222" style="stop-color:rgb(0%,0%,0%);stop-opacity:0.27451;"/>
<stop offset="1" style="stop-color:rgb(0%,0%,0%);stop-opacity:0;"/>
</radialGradient>
<linearGradient id="linear1" gradientUnits="userSpaceOnUse" x1="940" y1="1695.118164" x2="940" y2="175.118118" gradientTransform="matrix(0.0124035,0,0,0.0124035,0,0.00000000000000141)">
<stop offset="0" style="stop-color:rgb(93.725491%,60.392159%,60.392159%);stop-opacity:1;"/>
<stop offset="1" style="stop-color:rgb(100%,80.392158%,82.352942%);stop-opacity:1;"/>
</linearGradient>
<linearGradient id="linear2" gradientUnits="userSpaceOnUse" x1="249.189423" y1="233.5" x2="249.189423" y2="254.666687" gradientTransform="matrix(0.0224206,0,0,0.082039,11.281818,-12.270683)">
<stop offset="0" style="stop-color:rgb(0%,0%,0%);stop-opacity:0.27451;"/>
<stop offset="1" style="stop-color:rgb(0%,0%,0%);stop-opacity:0;"/>
</linearGradient>
<linearGradient id="linear3" gradientUnits="userSpaceOnUse" x1="338.666656" y1="233.5" x2="338.666656" y2="-168.666672" gradientTransform="matrix(0.0468795,0,0,0.0468795,0,10.079087)">
<stop offset="0" style="stop-color:rgb(93.725491%,32.549021%,31.37255%);stop-opacity:1;"/>
<stop offset="1" style="stop-color:rgb(89.803922%,45.09804%,45.09804%);stop-opacity:1;"/>
</linearGradient>
<linearGradient id="linear4" gradientUnits="userSpaceOnUse" x1="940" y1="1695.118164" x2="940" y2="175.118118" gradientTransform="matrix(1,0,0,1,0,-0)">
<stop offset="0" style="stop-color:rgb(93.725491%,32.549021%,31.37255%);stop-opacity:1;"/>
<stop offset="1" style="stop-color:rgb(89.803922%,45.09804%,45.09804%);stop-opacity:1;"/>
</linearGradient>
</defs>
<g id="surface1">
<path style=" stroke:none;fill-rule:nonzero;fill:url(#linear0);" d="M 5.953125 21.027344 L 17.363281 21.027344 L 17.363281 22.019531 L 5.953125 22.019531 Z M 5.953125 21.027344 "/>
<path style=" stroke:none;fill-rule:nonzero;fill:url(#radial0);" d="M 17.363281 21.027344 L 19.347656 21.027344 L 19.347656 20.03125 L 17.363281 20.03125 Z M 17.363281 21.027344 "/>
<path style=" stroke:none;fill-rule:nonzero;fill:url(#radial1);" d="M 5.953125 21.027344 L 3.96875 21.027344 L 3.96875 22.019531 L 5.953125 22.019531 Z M 5.953125 21.027344 "/>
<path style=" stroke:none;fill-rule:nonzero;fill:url(#radial2);" d="M 5.953125 21.027344 L 3.96875 21.027344 L 3.96875 20.03125 L 5.953125 20.03125 Z M 5.953125 21.027344 "/>
<path style=" stroke:none;fill-rule:nonzero;fill:url(#radial3);" d="M 17.363281 21.027344 L 19.347656 21.027344 L 19.347656 22.019531 L 17.363281 22.019531 Z M 17.363281 21.027344 "/>
<path style=" stroke:none;fill-rule:nonzero;fill:url(#linear1);" d="M 13.90625 2.171875 L 4.960938 2.171875 C 4.410156 2.171875 3.96875 2.613281 3.96875 3.164062 L 3.96875 20.03125 C 3.96875 20.582031 4.410156 21.027344 4.960938 21.027344 L 18.355469 21.027344 C 18.90625 21.027344 19.347656 20.582031 19.347656 20.03125 L 19.347656 7.613281 Z M 13.90625 2.171875 "/>
<path style=" stroke:none;fill-rule:nonzero;fill:url(#linear2);" d="M 13.890625 6.886719 L 18.605469 6.886719 L 19.347656 7.628906 L 19.347656 8.621094 L 13.890625 8.621094 Z M 13.890625 6.886719 "/>
<path style=" stroke:none;fill-rule:nonzero;fill:rgb(0%,0%,0%);fill-opacity:0.235294;" d="M 3.96875 19.648438 L 3.96875 20.03125 C 3.96875 20.582031 4.410156 21.027344 4.960938 21.027344 L 18.355469 21.027344 C 18.90625 21.027344 19.347656 20.582031 19.347656 20.03125 L 19.347656 19.648438 C 19.347656 20.199219 18.90625 20.640625 18.355469 20.640625 L 4.960938 20.640625 C 4.410156 20.640625 3.96875 20.199219 3.96875 19.648438 Z M 3.96875 19.648438 "/>
<path style=" stroke:none;fill-rule:nonzero;fill:rgb(96.470588%,96.470588%,96.470588%);fill-opacity:0.588235;" d="M 4.960938 2.171875 C 4.410156 2.171875 3.96875 2.613281 3.96875 3.164062 L 3.96875 3.535156 C 3.96875 2.988281 4.410156 2.542969 4.960938 2.542969 L 13.90625 2.542969 L 19.347656 7.988281 L 19.347656 7.613281 L 13.90625 2.171875 Z M 4.960938 2.171875 "/>
<path style=" stroke:none;fill-rule:nonzero;fill:url(#linear3);" d="M 19.347656 7.613281 L 13.90625 2.171875 L 13.90625 6.621094 C 13.90625 7.171875 14.347656 7.613281 14.898438 7.613281 Z M 19.347656 7.613281 "/>
<path style=" stroke:none;fill-rule:nonzero;fill:rgb(0%,0%,0%);fill-opacity:0.235294;" d="M 13.90625 6.390625 L 13.90625 6.621094 C 13.90625 7.171875 14.347656 7.613281 14.898438 7.613281 L 19.347656 7.613281 L 19.117188 7.382812 L 14.898438 7.382812 C 14.347656 7.382812 13.90625 6.9375 13.90625 6.390625 Z M 13.90625 6.390625 "/>
<path style=" stroke:none;fill-rule:nonzero;fill:rgb(100%,100%,100%);fill-opacity:0.392157;" d="M 13.90625 2.171875 L 13.90625 2.542969 L 18.976562 7.613281 L 19.347656 7.613281 Z M 13.90625 2.171875 "/>
<path style=" stroke:none;fill-rule:nonzero;fill:rgb(12.941177%,12.941177%,12.941177%);fill-opacity:1;" d="M 13.90625 2.101562 C 13.867188 2.101562 13.835938 2.132812 13.835938 2.171875 L 13.835938 6.621094 C 13.835938 7.210938 14.3125 7.683594 14.898438 7.683594 L 19.347656 7.683594 C 19.378906 7.683594 19.402344 7.667969 19.414062 7.640625 C 19.425781 7.617188 19.417969 7.585938 19.398438 7.566406 L 13.957031 2.121094 C 13.941406 2.109375 13.925781 2.101562 13.90625 2.101562 Z M 13.976562 2.339844 L 19.179688 7.542969 L 14.898438 7.542969 C 14.386719 7.542969 13.976562 7.132812 13.976562 6.621094 Z M 13.976562 2.339844 "/>
<path style=" stroke:none;fill-rule:nonzero;fill:rgb(12.941177%,12.941177%,12.941177%);fill-opacity:1;" d="M 4.960938 2.101562 C 4.375 2.101562 3.898438 2.578125 3.898438 3.164062 L 3.898438 20.03125 C 3.898438 20.621094 4.375 21.097656 4.960938 21.097656 L 18.355469 21.097656 C 18.945312 21.097656 19.417969 20.621094 19.417969 20.03125 L 19.417969 7.613281 C 19.417969 7.597656 19.414062 7.578125 19.398438 7.566406 L 13.957031 2.121094 C 13.941406 2.109375 13.925781 2.101562 13.90625 2.101562 Z M 4.960938 2.242188 L 13.878906 2.242188 L 19.277344 7.644531 L 19.277344 20.03125 C 19.277344 20.546875 18.871094 20.957031 18.355469 20.957031 L 4.960938 20.957031 C 4.449219 20.957031 4.039062 20.546875 4.039062 20.03125 L 4.039062 3.164062 C 4.039062 2.652344 4.449219 2.242188 4.960938 2.242188 Z M 4.960938 2.242188 "/>
<path style="fill-rule:nonzero;fill:url(#linear4);stroke-width:11.338583;stroke-linecap:round;stroke-linejoin:round;stroke:rgb(12.941177%,12.941177%,12.941177%);stroke-opacity:1;stroke-miterlimit:4;" d="M 620.098296 695.051773 C 609.075726 695.051773 599.94274 704.184759 599.94274 715.207329 L 599.94274 755.203512 C 599.94274 766.226082 609.075726 775.044138 620.098296 775.044138 L 660.094479 775.044138 C 671.117049 775.044138 679.935105 766.226082 679.935105 755.203512 L 679.935105 715.207329 C 679.935105 704.184759 671.117049 695.051773 660.094479 695.051773 Z M 780.083027 695.051773 C 769.060457 695.051773 759.927471 704.184759 759.927471 715.207329 L 759.927471 755.203512 C 759.927471 766.226082 769.060457 775.044138 780.083027 775.044138 L 820.07921 775.044138 C 831.10178 775.044138 839.919836 766.226082 839.919836 755.203512 L 839.919836 715.207329 C 839.919836 704.184759 831.10178 695.051773 820.07921 695.051773 Z M 1060.056306 695.051773 C 1049.033736 695.051773 1039.900749 704.184759 1039.900749 715.207329 L 1039.900749 755.203512 C 1039.900749 766.226082 1049.033736 775.044138 1060.056306 775.044138 L 1100.052488 775.044138 C 1111.075058 775.044138 1119.893114 766.226082 1119.893114 755.203512 L 1119.893114 715.207329 C 1119.893114 704.184759 1111.075058 695.051773 1100.052488 695.051773 Z M 1220.041036 695.051773 C 1209.018466 695.051773 1199.88548 704.184759 1199.88548 715.207329 L 1199.88548 755.203512 C 1199.88548 766.226082 1209.018466 775.044138 1220.041036 775.044138 L 1260.037219 775.044138 C 1271.059789 775.044138 1279.877845 766.226082 1279.877845 755.203512 L 1279.877845 715.207329 C 1279.877845 704.184759 1271.059789 695.051773 1260.037219 695.051773 Z M 700.090662 775.044138 C 689.068092 775.044138 679.935105 784.177125 679.935105 795.199695 L 679.935105 835.195877 C 679.935105 846.218447 689.068092 855.036503 700.090662 855.036503 L 740.086844 855.036503 C 751.109414 855.036503 759.927471 846.218447 759.927471 835.195877 L 759.927471 795.199695 C 759.927471 784.177125 751.109414 775.044138 740.086844 775.044138 Z M 1140.048671 775.044138 C 1129.026101 775.044138 1119.893114 784.177125 1119.893114 795.199695 L 1119.893114 835.195877 C 1119.893114 846.218447 1129.026101 855.036503 1140.048671 855.036503 L 1180.044854 855.036503 C 1191.067424 855.036503 1199.88548 846.218447 1199.88548 835.195877 L 1199.88548 795.199695 C 1199.88548 784.177125 1191.067424 775.044138 1180.044854 775.044138 Z M 620.098296 855.036503 C 609.075726 855.036503 599.94274 864.16949 599.94274 875.19206 L 599.94274 915.188243 C 599.94274 926.210813 609.075726 935.028869 620.098296 935.028869 L 660.094479 935.028869 C 671.117049 935.028869 679.935105 926.210813 679.935105 915.188243 L 679.935105 875.19206 C 679.935105 864.16949 671.117049 855.036503 660.094479 855.036503 Z M 780.083027 855.036503 C 769.060457 855.036503 759.927471 864.16949 759.927471 875.19206 L 759.927471 915.188243 C 759.927471 926.210813 769.060457 935.028869 780.083027 935.028869 L 820.07921 935.028869 C 831.10178 935.028869 839.919836 926.210813 839.919836 915.188243 L 839.919836 875.19206 C 839.919836 864.16949 831.10178 855.036503 820.07921 855.036503 Z M 1060.056306 855.036503 C 1049.033736 855.036503 1039.900749 864.16949 1039.900749 875.19206 L 1039.900749 915.188243 C 1039.900749 926.210813 1049.033736 935.028869 1060.056306 935.028869 L 1100.052488 935.028869 C 1111.075058 935.028869 1119.893114 926.210813 1119.893114 915.188243 L 1119.893114 875.19206 C 1119.893114 864.16949 1111.075058 855.036503 1100.052488 855.036503 Z M 1220.041036 855.036503 C 1209.018466 855.036503 1199.88548 864.16949 1199.88548 875.19206 L 1199.88548 915.188243 C 1199.88548 926.210813 1209.018466 935.028869 1220.041036 935.028869 L 1260.037219 935.028869 C 1271.059789 935.028869 1279.877845 926.210813 1279.877845 915.188243 L 1279.877845 875.19206 C 1279.877845 864.16949 1271.059789 855.036503 1260.037219 855.036503 Z M 820.07921 1015.021234 C 809.05664 1015.021234 799.923653 1024.154221 799.923653 1035.176791 L 799.923653 1075.172973 C 799.923653 1086.195543 809.05664 1095.013599 820.07921 1095.013599 L 1060.056306 1095.013599 C 1071.078876 1095.013599 1079.896932 1086.195543 1079.896932 1075.172973 L 1079.896932 1035.176791 C 1079.896932 1024.154221 1071.078876 1015.021234 1060.056306 1015.021234 Z M 740.086844 1095.013599 C 729.064274 1095.013599 719.931288 1104.146586 719.931288 1115.169156 L 719.931288 1155.165338 C 719.931288 1166.187909 729.064274 1175.005965 740.086844 1175.005965 L 780.083027 1175.005965 C 791.105597 1175.005965 799.923653 1166.187909 799.923653 1155.165338 L 799.923653 1115.169156 C 799.923653 1104.146586 791.105597 1095.013599 780.083027 1095.013599 Z M 1100.052488 1095.013599 C 1089.029918 1095.013599 1079.896932 1104.146586 1079.896932 1115.169156 L 1079.896932 1155.165338 C 1079.896932 1166.187909 1089.029918 1175.005965 1100.052488 1175.005965 L 1140.048671 1175.005965 C 1151.071241 1175.005965 1159.889297 1166.187909 1159.889297 1155.165338 L 1159.889297 1115.169156 C 1159.889297 1104.146586 1151.071241 1095.013599 1140.048671 1095.013599 Z M 660.094479 1175.005965 C 649.071909 1175.005965 639.938923 1184.138951 639.938923 1195.161521 L 639.938923 1235.157704 C 639.938923 1246.180274 649.071909 1254.99833 660.094479 1254.99833 L 700.090662 1254.99833 C 711.113232 1254.99833 719.931288 1246.180274 719.931288 1235.157704 L 719.931288 1195.161521 C 719.931288 1184.138951 711.113232 1175.005965 700.090662 1175.005965 Z M 1180.044854 1175.005965 C 1169.022284 1175.005965 1159.889297 1184.138951 1159.889297 1195.161521 L 1159.889297 1235.157704 C 1159.889297 1246.180274 1169.022284 1254.99833 1180.044854 1254.99833 L 1220.041036 1254.99833 C 1231.063606 1254.99833 1239.881662 1246.180274 1239.881662 1235.157704 L 1239.881662 1195.161521 C 1239.881662 1184.138951 1231.063606 1175.005965 1220.041036 1175.005965 Z M 1180.044854 1175.005965 " transform="matrix(0.0124035,0,0,0.0124035,0,0)"/>
</g>
</svg>

<svg xmlns="http://www.w3.org/2000/svg" width="32" height="32" viewBox="0 0 24 24"><defs><linearGradient id="a" gradientUnits="userSpaceOnUse" x1="254" y1="233.5" x2="254" y2="254.667" gradientTransform="matrix(.04688 0 0 .04688 .496 10.08)"><stop offset="0" stop-opacity=".275"/><stop offset="1" stop-opacity="0"/></linearGradient><radialGradient id="b" gradientUnits="userSpaceOnUse" cx="450.909" cy="189.579" fx="450.909" fy="189.579" r="21.167" gradientTransform="matrix(0 -.0586 -.10548 0 37.113 47.696)"><stop offset="0" stop-opacity=".314"/><stop offset=".222" stop-opacity=".275"/><stop offset="1" stop-opacity="0"/></radialGradient><radialGradient id="c" gradientUnits="userSpaceOnUse" cx="450.909" cy="189.579" fx="450.909" fy="189.579" r="21.167" gradientTransform="matrix(0 .0586 .10548 0 -13.795 -5.646)"><stop offset="0" stop-opacity=".314"/><stop offset=".222" stop-opacity=".275"/><stop offset="1" stop-opacity="0"/></radialGradient><radialGradient id="d" gradientUnits="userSpaceOnUse" cx="450.909" cy="189.579" fx="450.909" fy="189.579" r="21.167" gradientTransform="matrix(0 -.0586 .10548 0 -13.795 47.696)"><stop offset="0" stop-opacity=".314"/><stop offset=".222" stop-opacity=".275"/><stop offset="1" stop-opacity="0"/></radialGradient><radialGradient id="e" gradientUnits="userSpaceOnUse" cx="450.909" cy="189.579" fx="450.909" fy="189.579" r="21.167" gradientTransform="matrix(0 .0586 -.10548 0 37.113 -5.646)"><stop offset="0" stop-opacity=".314"/><stop offset=".222" stop-opacity=".275"/><stop offset="1" stop-opacity="0"/></radialGradient><linearGradient id="f" gradientUnits="userSpaceOnUse" x1="940" y1="1695.118" x2="940" y2="175.118" gradientTransform="scale(.0124)"><stop offset="0" stop-color="#ef9a9a"/><stop offset="1" stop-color="#ffcdd2"/></linearGradient><linearGradient id="g" gradientUnits="userSpaceOnUse" x1="249.189" y1="233.5" x2="249.189" y2="254.667" gradientTransform="matrix(.02242 0 0 .08204 11.282 -12.27)"><stop offset="0" stop-opacity=".275"/><stop offset="1" stop-opacity="0"/></linearGradient><linearGradient id="h" gradientUnits="userSpaceOnUse" x1="338.667" y1="233.5" x2="338.667" y2="-168.667" gradientTransform="matrix(.04688 0 0 .04688 0 10.08)"><stop offset="0" stop-color="#ef5350"/><stop offset="1" stop-color="#e57373"/></linearGradient><linearGradient id="i" gradientUnits="userSpaceOnUse" x1="940" y1="1695.118" x2="940" y2="175.118"><stop offset="0" stop-color="#ef5350"/><stop offset="1" stop-color="#e57373"/></linearGradient></defs><path d="M5.953 21.027h11.41v.993H5.953zm0 0" fill="url(#a)"/><path d="M17.363 21.027h1.985v-.996h-1.985zm0 0" fill="url(#b)"/><path d="M5.953 21.027H3.97v.993h1.984zm0 0" fill="url(#c)"/><path d="M5.953 21.027H3.97v-.996h1.984zm0 0" fill="url(#d)"/><path d="M17.363 21.027h1.985v.993h-1.985zm0 0" fill="url(#e)"/><path d="M13.906 2.172H4.961a.989.989 0 0 0-.992.992v16.867c0 .551.441.996.992.996h13.394c.551 0 .993-.445.993-.996V7.613zm0 0" fill="url(#f)"/><path d="M13.89 6.887h4.715l.743.742v.992H13.89zm0 0" fill="url(#g)"/><path d="M3.969 19.648v.383c0 .551.441.996.992.996h13.394c.551 0 .993-.445.993-.996v-.383c0 .551-.442.993-.993.993H4.961a.989.989 0 0 1-.992-.993zm0 0" fill-opacity=".235"/><path d="M4.96 2.172a.989.989 0 0 0-.991.992v.371c0-.547.441-.992.992-.992h8.945l5.442 5.445v-.375l-5.442-5.441zm0 0" fill="#f6f6f6" fill-opacity=".588"/><path d="M19.348 7.613l-5.442-5.441v4.45c0 .55.442.991.992.991zm0 0" fill="url(#h)"/><path d="M13.906 6.39v.231c0 .55.442.992.992.992h4.45l-.23-.23h-4.22a.991.991 0 0 1-.992-.992zm0 0" fill-opacity=".235"/><path d="M13.906 2.172v.371l5.07 5.07h.372zm0 0" fill="#fff" fill-opacity=".392"/><path d="M13.906 2.102a.07.07 0 0 0-.07.07v4.45c0 .589.476 1.062 1.062 1.062h4.45a.068.068 0 0 0 .066-.043c.012-.024.004-.055-.016-.075l-5.441-5.445a.082.082 0 0 0-.05-.02zm.07.238l5.204 5.203h-4.282a.919.919 0 0 1-.921-.922zm0 0" fill="#212121"/><path d="M4.96 2.102c-.585 0-1.062.476-1.062 1.062v16.867c0 .59.477 1.067 1.063 1.067h13.394c.59 0 1.063-.477 1.063-1.067V7.613c0-.015-.004-.035-.02-.047l-5.441-5.445a.082.082 0 0 0-.05-.02zm0 .14h8.919l5.398 5.403V20.03a.917.917 0 0 1-.922.926H4.961a.92.92 0 0 1-.922-.926V3.164c0-.512.41-.922.922-.922zm0 0" fill="#212121"/><path d="M620.098 695.052c-11.022 0-20.155 9.133-20.155 20.155v39.997c0 11.022 9.133 19.84 20.155 19.84h39.996a19.758 19.758 0 0 0 19.841-19.84v-39.997c0-11.022-8.818-20.155-19.84-20.155zm159.985 0c-11.023 0-20.156 9.133-20.156 20.155v39.997c0 11.022 9.133 19.84 20.156 19.84h39.996a19.758 19.758 0 0 0 19.84-19.84v-39.997c0-11.022-8.817-20.155-19.84-20.155zm279.973 0c-11.022 0-20.155 9.133-20.155 20.155v39.997c0 11.022 9.133 19.84 20.155 19.84h39.996a19.758 19.758 0 0 0 19.841-19.84v-39.997c0-11.022-8.818-20.155-19.84-20.155zm159.985 0c-11.023 0-20.156 9.133-20.156 20.155v39.997c0 11.022 9.133 19.84 20.156 19.84h39.996a19.758 19.758 0 0 0 19.84-19.84v-39.997c0-11.022-8.817-20.155-19.84-20.155zm-519.95 79.992c-11.023 0-20.156 9.133-20.156 20.156v39.996c0 11.022 9.133 19.84 20.156 19.84h39.996a19.758 19.758 0 0 0 19.84-19.84V795.2c0-11.023-8.818-20.156-19.84-20.156zm439.958 0c-11.023 0-20.156 9.133-20.156 20.156v39.996c0 11.022 9.133 19.84 20.156 19.84h39.996a19.758 19.758 0 0 0 19.84-19.84V795.2c0-11.023-8.818-20.156-19.84-20.156zm-519.95 79.993c-11.023 0-20.156 9.132-20.156 20.155v39.996c0 11.023 9.133 19.84 20.155 19.84h39.996a19.758 19.758 0 0 0 19.841-19.84v-39.996c0-11.023-8.818-20.155-19.84-20.155zm159.984 0c-11.023 0-20.156 9.132-20.156 20.155v39.996c0 11.023 9.133 19.84 20.156 19.84h39.996a19.758 19.758 0 0 0 19.84-19.84v-39.996c0-11.023-8.817-20.155-19.84-20.155zm279.973 0c-11.022 0-20.155 9.132-20.155 20.155v39.996c0 11.023 9.133 19.84 20.155 19.84h39.996a19.758 19.758 0 0 0 19.841-19.84v-39.996c0-11.023-8.818-20.155-19.84-20.155zm159.985 0c-11.023 0-20.156 9.132-20.156 20.155v39.996c0 11.023 9.133 19.84 20.156 19.84h39.996a19.758 19.758 0 0 0 19.84-19.84v-39.996c0-11.023-8.817-20.155-19.84-20.155zM820.079 1015.02c-11.022 0-20.155 9.133-20.155 20.156v39.996c0 11.023 9.133 19.84 20.155 19.84h239.977a19.758 19.758 0 0 0 19.84-19.84v-39.996c0-11.023-8.817-20.156-19.84-20.156zm-79.992 79.993c-11.023 0-20.156 9.133-20.156 20.155v39.996c0 11.023 9.133 19.841 20.156 19.841h39.996a19.758 19.758 0 0 0 19.84-19.84v-39.997c0-11.022-8.817-20.155-19.84-20.155zm359.965 0c-11.022 0-20.155 9.133-20.155 20.155v39.996c0 11.023 9.133 19.841 20.155 19.841h39.997a19.758 19.758 0 0 0 19.84-19.84v-39.997c0-11.022-8.818-20.155-19.84-20.155zm-439.958 79.992c-11.022 0-20.155 9.133-20.155 20.156v39.996c0 11.022 9.133 19.84 20.155 19.84h39.997a19.758 19.758 0 0 0 19.84-19.84v-39.996c0-11.023-8.818-20.156-19.84-20.156zm519.95 0c-11.022 0-20.155 9.133-20.155 20.156v39.996c0 11.022 9.133 19.84 20.156 19.84h39.996a19.758 19.758 0 0 0 19.84-19.84v-39.996c0-11.023-8.817-20.156-19.84-20.156zm0 0" transform="scale(.0124)" fill="url(#i)" stroke-width="11.339" stroke-linecap="round" stroke-linejoin="round" stroke="#212121"/></svg>
